!!!COM: Castro, Jean de
!!!OTL: Non è questa la mano
!!!CDT:
!!!PTL: Rose fresche. Madrigali novi a tre voci
!!!PPP: Venice
!!!PPR: Amadino
!!!PDT: 1591
!!!PUB-format:
!!!RISM: C 1482
!!!rime: 47
!!!AGN: Madrigal
!!!SCT: Trm0047n
!!!SCA: Trm0047n
!!!original-voices: 3
!!!extant-voices: 3
!!!complete: Y
!!!final: G
**kern	**text	**kern	**text	**kern	**text
*part3	*part3	*part2	*part2	*part1	*part1
*staff3	*staff3	*staff2	*staff2	*staff1	*staff1
*I"Basso	*	*I"Tenore	*	*I"Canto	*
*I'B	*	*I'T	*	*I'C	*
*oclefC4	*	*oclefC3	*	*oclefC1	*
*clefGv2	*	*clefGv2	*	*clefG2	*
*k[]	*	*k[]	*	*k[]	*
*C:	*	*C:	*	*C:	*
*omet(C)	*	*omet(C)	*	*omet(C)	*
*M4/2	*	*M4/2	*	*M4/2	*
=1	=1	=1	=1	=1	=1
0r	.	4r	.	2g	Non
.	.	4G	Non	.	.
.	.	4c	è	4g	è
.	.	4c	que-	4e	que-
.	.	4d	-sta	4f	-sta
.	.	4e	la	4g	la
.	.	4f	ma-	2a	ma-
.	.	4d	-no,	.	.
=2	=2	=2	=2	=2	=2
2G	Non	4r	.	4d	-no,
.	.	4d	<Non	4dd	<Non
4G	è	4d	è	4b	è
4E	que-	4e	que-	4cc	que-
4F	-sta	4c	-sta	4a	-sta
4G	la	4g	la	4b	la
2A	ma-	2f	ma-	2cc	ma-
=3	=3	=3	=3	=3	=3
0G	-no	4g	-no,>	4b	-no,>
.	.	4G	Non	4dd	Non
.	.	4.B	è	4dd	è
.	.	.	.	4g	que-
.	.	8c	que-	.	.
.	.	4d	-sta	4b	-sta
.	.	4e	la	4cc	la
.	.	2d	ma-	2b	ma-
=4	=4	=4	=4	=4	=4
2G	Che	4d	-no	4b	-no
.	.	4g	Che	4dd	Che
4A	tan-	4e	tan-	4cc	tan-
4G	-t'e	4g	-t'e	4b	-t’e
4F	sì	4c	sì	4a	sì
4F	mor-	4A	mor-	4a	mor-
2E	-ta-	2B	-ta-	2g	-ta-
=5	=5	=5	=5	=5	=5
2E	-li	2B	-li	2g	-li
4c	A-	4e	A-	4g	A-
8cL	-ven-	8eL	-ven-	8gL	-ven-
8cJ	-tò	8eJ	-tò	8gJ	-tò
4c	nel	4e	nel	4g	nel
4d	mio	4d	mio	4f	mio
2A	cor	2c	cor	2e	cor
=6	=6	=6	=6	=6	=6
4A	fiam-	4e	fiam-	1r	.
8dL	-mel-	8fL	-mel-	.	.
8eJ	-l'e	8gJ	-l'e	.	.
4f	stra-	4a	stra-	.	.
4c	-li?	4g	-li,	.	.
1r	.	4c	fiam-	4e	fiam-
.	.	8dL	-mel-	8fL	-mel-
.	.	8eJ	-l'e	8gJ	-l’e
.	.	4f	stra-	4a	stra-
.	.	4e	-li?	4g	-li?
=7	=7	=7	=7	=7	=7
2G	Ec-	4r	.	2r	.
.	.	4d	Ec-	.	.
4.E	-co	4G	-co	2g	Ec-
.	.	4B	che	.	.
8E	che	.	.	.	.
4A	pur	4c#X	pur	4.e	-co
4A	si	4c#i	si	.	.
.	.	.	.	8e	che
2D	tro	2d	tro-	4f	pur
.	.	.	.	4a	si
=8	=8	=8	=8	=8	=8
2E	va	2B	-va	4g	tro-
.	.	.	.	4g	-va
4c	Nel-	2r	.	4e	Nel-
8BL	-le	.	.	8dL	-le
8cJ	mie	.	.	8eJ	mie
4d	man	1r	.	4f	man
4c	ri-	.	.	4e	ri-
4B	-stret-	.	.	4d	-stret-
4c	-ta,	.	.	4g	-ta,
=9	=9	=9	=9	=9	=9
1r	.	4e	Nel-	4g	Nel-
.	.	8dL	-le	8fL	-le
.	.	8eJ	mie	8gJ	mie
.	.	4f	man	4a	man
.	.	4e	ri-	4cc	ri-
2r	.	4d	-stret-	4b	-stret-
.	.	4c	-ta,	4cc	-ta,
2G	Né	4r	.	4r	.
.	.	4g	Né	4dd	Né
=10	=10	=10	=10	=10	=10
4F#X	for-	4a	for-	4dd	for-
4G	-za	4g	-za	4b	-za
4D	d'ar-	4f	d'ar-	4a	d’ar-
2G	-te,	4d	-te,	4b	-te,
.	.	4r	.	4r	.
4G	<Né	4d	<Né	4dd	<Né
4F#i	for-	4a	for-	4dd	for-
4G	-za	4g	-za	4b	-za
=11	=11	=11	=11	=11	=11
4d	d'ar-	4f	d'ar-	4a	d'ar-
2G	-te,>	4d	-te,>	4b	-te,>
.	.	4r	.	4r	.
4c	Né	4e	Né	4g	Né
4B	for-	4d	for-	4g	for-
4c	-za	4e	-za	4g	-za
4G	d'ar-	4d	d'ar-	2g	d’ar-
4c	-te,	4e	-te,	.	.
=12	=12	=12	=12	=12	=12
4r	.	4r	.	4e	-te,
4c	<Né	4c	<Né	4ee	<Né
4B	for-	4d	for-	4dd	for-
4c	-za	4e	-za	4cc	-za
4G	d'ar-	2d	d'ar-	2b	d’ar-
4G	-te>	.	.	.	.
4r	.	4e	-te>	4cc	-te>
8cL	per	8gL	per	8eeL	per
8dJ	fug-	8fJ	fug-	8ddJ	fug-
=13	=13	=13	=13	=13	=13
4e	-gir	4g	-gir	4cc	-gir
4g	le	4e	le	4b	le
2d	gio-	2f#X	gio-	2a	gio-
[1G	-va,	2g	-va,	4b	-va,
.	.	.	.	8bL	per
.	.	.	.	8ccJ	fug-
.	.	4r	.	8ddL	-gir
.	.	.	.	8cc	.
.	.	8GL	per	8dd	.
.	.	8AJ	fug-	8eeJ	.
=14	=14	=14	=14	=14	=14
1G]	.	4B	-gir	4dd	.
.	.	4c	le	4cc	le
.	.	2d	gio-	2b	gio-
2r	.	2e	-va,	1cc	-va,
4c	Né	4e	Né	.	.
4d	tien	4f	tien	.	.
=15	=15	=15	=15	=15	=15
2e	fa-	2g	fa-	0r	.
4e	-ce o	4g	-ce o	.	.
4f	sa-	4a	sa-	.	.
8dL	-et-	8fL	-et-	.	.
8c	.	8e	.	.	.
8d	.	8f	.	.	.
8eJ	.	8gJ	.	.	.
4d	.	4f#X	.	.	.
4c	-ta,	4g	-ta,	.	.
=16	=16	=16	=16	=16	=16
4F	Né	1r	.	4a	Né
4G	tien	.	.	4b	tien
2A	fa-	.	.	2cc	fa-
4d	-ce o	4f#X	Né	4dd	-ce o
4c	sa-	4g	tien	4ee	sa-
8FL	-et-	2a	fa-	2ff	-et-
8G	.	.	.	.	.
8A	.	.	.	.	.
8BJ	.	.	.	.	.
=17	=17	=17	=17	=17	=17
8cL	.	8gL	-ce o	2ee	-ta,
8d	.	8fnXi	.	.	.
8e	.	8e	.	.	.
8fJ	.	8dJ	.	.	.
4g	.	4c	.	4r	.
4G	.	4d	sa-	4dd	o
8AL	.	4a	-et-	8ccL	sa-
8B	.	.	.	8dd	.
8c	.	4.g	.	8ee	.
8BJ	.	.	.	8ddJ	.
2A	.	.	.	4cc	.
.	.	16f#iLL	.	.	.
.	.	16eJJ	.	.	.
.	.	4f#i	.	4cc	-et-
=18	=18	=18	=18	=18	=18
2G	-ta	2g	-ta	4b	-ta
.	.	.	.	8bL	Che
.	.	.	.	8ccJ	da
2r	.	4r	.	4dd	me
.	.	8fL	Che	2cc	la
.	.	8gJ	da	.	.
4r	.	4a	me	.	.
8BL	Che	4g	la	4b	di-
8cJ	da	.	.	.	.
4d	me	4f	di-	2a	-fen-
[4c	la	[4e	-fen-	.	.
=19	=19	=19	=19	=19	=19
4c]	.	4e]	.	2g	-da,
4B	di-	4d	-da,	.	.
2A	-fen-	4r	.	4r	.
.	.	8eL	Che	2cc	la
.	.	8fJ	da	.	.
2G	-da,	2g	me	.	.
.	.	.	.	4b	di-
4r	.	4r	.	4a	-fen-
[4c	la	[4e	la	[4g	-da,
=20	=20	=20	=20	=20	=20
8cL]	.	8eL]	.	4g]	.
8B	.	8d	.	.	.
8A	.	8c	.	2a	<la
8GJ	.	8BJ	.	.	.
4F	.	4c	.	.	.
4D	di-	4d	di-	4f	di-
2A	-fen-	2c#X	-fen-	2e	-fen-
2D	-da.	2d	-da.	2f#X	-da.>
=21	=21	=21	=21	=21	=21
4D	Giu-	2r	.	4dd	Giu-
4A	-sto è	.	.	4cc	-sto è
2E	ben,	4g	Giu-	2b	ben
.	.	4f	-sto è	.	.
1r	.	2e	ben,	4cc	ch'io
.	.	.	.	4b	ne
.	.	4f	<Giu-	4a	pren-
.	.	4e	-sto_è	4a	-d'a-
=22	=22	=22	=22	=22	=22
4G	Giu-	2d	ben,>	4b	-mor,
4F	-sto è	.	.	2b	Giu-
2E	ben,	4g	<Giu-	.	.
.	.	4f	-sto è	4a	-sto è
4c	<Giu-	2e	ben,>	2g	ben,
4B	-sto è	.	.	.	.
2A	ben,>	4a	ch'io	4cc	<Giu-
.	.	4g	ne	4b	-sto è
=23	=23	=23	=23	=23	=23
4d	<Giu-	4f	pren-	2a	ben>
4c	-sto è	4e	-d'a-	.	.
2B	ben>	2d	-mor,	4r	.
.	.	.	.	4dd	ch'io
4c	ch'io	4r	.	4g	ne
4c	ne	2e	ch'io	2cc	pren-
4.G	pren-	.	.	.	.
.	.	4d	ne	4b	-d'a-
8G	-d'a-	.	.	.	.
=24	=24	=24	=24	=24	=24
2A	-mor	4.c	pren-	2cc	-mor,
.	.	8B	-d'a-	.	.
2F	qual-	4A	-mor	4r	.
.	.	4f	qual-	4a	qual-
4G	-che	4d	-che	4b	-che
4D	ven-	4f	ven-	4dd	ven-
2A	-det-	2e	-det-	2cc#X	-det-
=25	=25	=25	=25	=25	=25
2D	-ta,	2f	-ta,	4dd	-ta,
.	.	.	.	4dd	E
4r	.	4r	.	4ccnXi	se
4d	E	4f	E	2a	pia-
4c	se	4e	se	.	.
4B	pia-	4d	pia-	2g	-ghe
4c	-ghe	4e	-ghe	.	.
4d	mi	4d	mi	4f	mi
=26	=26	=26	=26	=26	=26
0A	diè	4c#X	diè,	4e	diè,
.	.	4e	E	4cc	E
.	.	4e	se	4a	se
.	.	4.a	pia-	4f	pia-
.	.	.	.	4e	-ghe
.	.	8g	-ghe	.	.
.	.	4f	mi	4d	mi
.	.	2e	diè	2c#X	diè
=27	=27	=27	=27	=27	=27
1D	ba-	2f	ba	4r	.
.	.	.	.	4.a	ba-
.	.	4d	ci,	.	.
.	.	.	.	8g	-ci
.	.	4.a	ba-	4f	le
1D	-ci	.	.	4d	ren-
.	.	8g	-ci	.	.
.	.	4f	le	4a	-da,
.	.	4d	ren-	4r	.
.	.	4a	-da,	[4a	ba-
=28	=28	=28	=28	=28	=28
1D	le	4r	.	8aL]	.
.	.	.	.	8gJ	-ci
.	.	4.a	ba-	4f	le
.	.	.	.	4d	ren-
.	.	8g	-ci	.	.
.	.	4f	le	4a	-da,
1D	ren-	4d	ren-	4r	.
.	.	4a	-da,	4.f	<ba-
.	.	4r	.	.	.
.	.	.	.	8e	-ci
.	.	[4f	<ba-	4d	le
=29	=29	=29	=29	=29	=29
1D	-da,	8fL]	.	4a	ren-
.	.	8eJ	-ci	.	.
.	.	4d	le	4a	-da,>
.	.	4a	ren-	4r	.
.	.	4a	-da,>	4.f	ba-
1D	ba-	4r	.	.	.
.	.	.	.	8g	-ci
.	.	4.f	ba-	4a	le
.	.	.	.	4f	ren-
.	.	8g	-ci	.	.
.	.	4a	le	4d	-da,
=30	=30	=30	=30	=30	=30
2D	-ci	4f	ren-	4r	.
.	.	4d	-da,	4.dd	ba-
2G	le	4r	.	.	.
.	.	.	.	8cc	-ci
.	.	4.d	ba-	4b	le-
1D	ren-	.	.	4a	-ren
.	.	8c	-ci	.	.
.	.	4B	le	4.g	.
.	.	2A	ren-	.	.
.	.	.	.	16f#iLL	.
.	.	.	.	16eJJ	.
.	.	.	.	4f#i	.
=31	=31	=31	=31	=31	=31
0Gl	-da.	0Bl	-da.	0gl	da.
==	==	==	==	==	==
*-	*-	*-	*-	*-	*-
!!!system-decoration: [(s1)(s2)(s3)]
!!!RDF**kern: i = editorial accidental
!!!RDF**kern: l = terminal long
!!!ENC: Emiliano Ricciardi
!!!END: 2019/01/01
!!!EED: Schleuse, Paul
!!!EEV: 2019/01/14
!!!YEC: Copyright 2018 Emiliano Ricciardi, All Rights Reserved
!!!ONB: Translated from MusicXML on 2019/01/14 and edited by Craig Stuart Sapp
